X: 4271
T: JOHNNY GET YOUR GUN
R: Hornpipe.
%R: hornpipe, reel
B: James Kerr "Merry Melodies" v.4 p.29 #271
Z: 2016 John Chambers <jc:trillian.mit.edu>
M: C|
L: 1/8
K: A
|:\
AcBA F2E2 | F2EE F2EE |\
AcBA F2EE | F2G2 A2z2 ::\
ABcd e2e2 | fedc BdcB |
ABcd e2e2 | fedc B2E2 |\
ABcd e2e2 | fedc BdcB |\
ABcA F2EE | F2G2 A2z2 :|

%%sep 1 1 500
%%sep 1 1 500

